!!!!SEGMENT: pl-wtm--r-107-m_moniuszko-stanislaw--korale.krn
!!!cenid: 18xx:3026
!!!COM: Moniuszko, Stanisław
!!!COM-rism: pe30008351
!!!CDT: 1819/05/05-1872/06/04
!!!CNT: Polish
!!!OTL: Korale
!!!PDT:
!!!AGN: Secular
!!!SMS-siglum: PL-Wtm
!!!SMS-shelfmark: R 107/M
!!!NIFC-rismID: 1001094331
!!!URL-scan: http://repozytorium.nifc.pl/skany/pl-wtm-nut--r107m
!!!ONB-nifc:
!!!SMS-variant:
!!!SMS-altvar:
**kern	**kern	**dynam	**kern	**text
*part2	*part2	*part2	*part1	*part1
*staff3	*staff2	*	*staff1	*staff1
*I"Fortepian	*I"Fortepian	*	*I"Głos	*
*>[A,B,B]	*>[A,B,B]	*>[A,B,B]	*>[A,B,B]	*>[A,B,B]
*>A	*>A	*>A	*>A	*>A
*clefF4	*clefG2	*	*clefG2	*
*k[f#c#g#d#]	*k[f#c#g#d#]	*	*k[f#c#g#d#]	*
*M2/4	*M2/4	*	*M2/4	*
*	*^	*	*	*
!	!	!	!	!LO:TX:a:i:t=Korale. Pieśń S. Moniuszki.	!
!	!LO:TX:t=P:problem:cross-measure beam	!	!	!LO:TX:a:t=Dar pani Pelagii z Ciemnołońskich Oleszkiewiczowej	!
!	!LO:TX:t=P:problem:kolejność znaków f# cc# g# dd#	!	!	!LO:TX:t=P:problem:kolejność znaków f# cc# g# dd#	!
(8F# (8D#\	[8g#^/	(>8B#X\	.	8r	.
=1	=1	=1	=1	=1	=1
!	!	!LO:TX:b:t=P:problem:mixed beam	!	!	!
8E\L))	8g#/]	8c#\L)	.	2r	.
8F#'\	(>16d#/LL	8A</J	.	.	.
.	16f#/JJ	.	.	.	.
8G#'<\	8eL 8G#</)	4ryy	.	.	.
8F#J 8GG#\	8d#J 8B#X/|>	.	.	.	.
*	*v	*v	*	*	*
=2	=2	=2	=2	=2
(4E 4C#\	(4c#/	.	2r	.
8CC#/)	8cc#\)	.	.	.
8r	8r	.	.	.
=3!|:	=3!|:	=3!|:	=3!|:	=3!|:
*>B	*>B	*>B	*>B	*>B
8C# 8CC#\	8r	.	8g#/	Gdym
8r	8g# 8e 8c# 8G#</	.	8a/	z Ko-
8C# 8CC#\	8r	.	8g#/	-za-
8r	8g# 8e 8c# 8G#</	.	16f#/LL	-ki
.	.	.	16e/JJ	.
=4	=4	=4	=4	=4
8C# 8CC#\	8r	.	8d#/	szedł
8r	8g# 8f# 8d# 8B#X< 8G#</	.	16d#/LL	na
.	.	.	16e/JJ	.
8C# 8CC#\	8r	.	8f#/	bo-
8r	8g# 8f# 8d# 8B#< 8G#</	.	8g#/	-je,
=5	=5	=5	=5	=5
8C# 8CC#\	8r	.	8e/	mo-
8r	8g# 8e 8c# 8G#</	.	16e/LL	-ja
.	.	.	16d#/JJ	.
8EE\	8r	.	8c#/	Han-
8r	8g# 8e 8c# 8G#</	.	8e/	-na
=6	=6	=6	=6	=6
8GG#\	8r	.	4d#/	rze-
8r	8g# 8d# 8c# 8G#</	.	.	.
8GG# 8GGG#\	8r	.	8G#/	-cze:
8r	8g# 8f# 8d# 8B#X< 8G#</	.	8r	.
!!LO:LB:g=original
=7	=7	=7	=7	=7
4C# 4CC#/	8r	.	8g#/	„nie-
.	8g# 8e 8c# 8G#</	.	16b/LL	-siesz
.	.	.	16a/JJ	.
4BB 4BBB/	8r	.	8g#/	lu-
.	8g# 8d# 8G#</	.	16f#/LL	-by
.	.	.	16e/JJ	.
=8	=8	=8	=8	=8
4AAn 4AAAn/	8r	.	8d#/	ży-
.	8f# 8d# 8c#/	.	16d#/LL	-cie
.	.	.	16e/JJ	.
4GG# 4GGG#/	8r	.	8f#/	two-
.	8g# 8d# 8B#X/	.	8g#/	-je
=9	=9	=9	=9	=9
!LO:TX:t=P:problem:mixed beam	!	!	!	!
8GG#L 8GGG#/	8r	.	8e/	pod
8G#\J	(16g#LL 16c#/	.	16c#/LL	Ta-
.	16cc#JJ 16e/)	.	16e/JJ	.
!LO:TX:t=P:problem:mixed beam	!	!	!	!
8GG#/L	8cc#L 8e/	.	8.e/	-tar-
8d#J 8G#\	8b#XJ 8f#/	.	.	.
.	.	.	16d#/|>	-skie
=10	=10	=10	=10	=10
8C#\	8cc# 8e/	.	4c#/	mie-
8r	8e 8c# 8G#</	.	.	.
(4FF# (4FFF#\	8r	.	8e/	-cze!
.	8e 8c# 8A#X< 8F#</	.	8r	.
=11	=11	=11	=11	=11
!LO:TX:t=P:problem:mixed beam	!	!	!	!
8BBL 8BBB/))	8d#L 8B'/	.	8d#/	Lecz
8AJ 8F#\	8eJ 8c#'/	.	8e/	mo-
!	!LO:TX:b:t=cres-cen-do:problem:dynamics with extention lines	!LO:HP:t=cres-cen-do	!	!
8BB\L	8f#L 8d#^/	<	8f#/	-dli-
8BJ 8A 8F#\	(16eL 16c#/	.	16e/LL	-twa,
.	16f#JJ 16d#/)	.	16f#/JJ	.
=12	=12	=12	=12	=12
(4E 4EE/	8g#L 8e/	.	8g#/	płacz
.	8g#J 8e 8B/	.	16g#/LL	dziew-
.	.	.	16a/JJ	.
4Dn 4DDn/	8r	.	8b/	-czy-
.	8b 8f# 8B/	[[	8b/	-ny
!!LO:LB:g=original
=13	=13	=13	=13	=13
*	*^	*	*	*
!LO:TX:t=P:problem:mixed beam	!	!	!	!	!
8C#L 8CC#/)	8r	8ryy	f	8b/	„w bo-
8c#J 8G#\	(<16a/LL	8e#X\	.	16a/LL	-ju
.	16b/JJ	.	.	16b/JJ	.
8C#\L	8cc#/)	8r	.	8.cc#\	cię
8BJ 8G#\	8g# 8e# 8c#/	8ryy	.	.	.
.	.	.	.	16g#/	o-
=14	=14	=14	=14	=14	=14
(4F# 4FF#/	(4b/	8r	.	4b/	-ca-
.	.	4f# 4c#\	>	.	.
4E 4EE/)	8a/)	.	.	8a/	-li;
.	8r	8f# 8c#\	]	8r	.
*	*v	*v	*	*	*
=15	=15	=15	=15	=15
(8DnL 8DDn/	8r	.	8a/	ty
8C#J 8CC#/	8f# 8A/	.	8b/	mi
4BB#X 4BBB#X/)	8r	.	8a/	za
.	8g# 8d# 8G#/	.	16g#/LL	to
.	.	.	16f#/JJ	.
=16	=16	=16	=16	=16
!	!	!LO:DY:t=p.	!	!
8C# 8CC#/	8r	p	8e/	mój
8r	8e 8c# 8G#</	.	16e/LL	je-
.	.	.	16f#/JJ	.
(4EE/	8r	.	8g#/	-dy-
.	8g# 8c# 8G#</	.	8c#/	-ny,
=17	=17	=17	=17	=17
8FF#/L)	8r	.	8d#/	przy-
8C#'/J	(16f#LL 16A/	.	8f#/	-wieź
.	16aJJ 16c#/	.	.	.
4GG#^/	8g#L 8B#X'/)	.	8e/	sznur
.	8f#J 8B# 8G#<'/	.	8d#/	ko-
!!LO:LB:g=original
=18	=18	=18	=18	=18
(<4.C#\	8r	.	4c#/	-ra-
.	8eL 8c# 8G#</	.	.	.
.	8cc#J 8e 8c#/	.	8c#/	-li."
8c# 8G# 8E'\)	8r	.	8r	.
=19	=19	=19	=19	=19
*	*^	*	*	*
*ped	*	*	*	*	*
!	!	!	!LO:DY:t=sff.	!	!
8FF#L 8FFF#/	(8.aa/L	4dd# 4a\	sf	2r	.
(8AA/	.	.	.	.	.
.	16ff#/Jk	.	.	.	.
8D#/	16dd#/LL	4ryy	.	.	.
.	16a/	.	.	.	.
8F#/J)	16f#/	.	.	.	.
.	16d#/JJ	.	.	.	.
=20	=20	=20	=20	=20	=20
*Xped	*	*	*	*	*
4r	16A^/LL	4A\	.	2r	.
.	(<16c#/	.	.	.	.
.	16d#/	.	.	.	.
.	16f#/JJ	.	.	.	.
8r	8a/L))|>	8ryy	.	.	.
(8F# (>8D#\	[8g#^/J	8B#X\	.	.	.
=21	=21	=21	=21	=21	=21
!	!	!LO:TX:t=P:problem:mixed beam	!	!	!
8G#L) 8E\)	8g#/]	8c#\L	.	2r	.
8F#\|<	(>16d#/LL	8A</J	.	.	.
.	16f#/JJ	.	.	.	.
8G#\|<	8eL 8c# 8G#<'>/)	4ryy	.	.	.
8GG#J 8G#\	(>8d#J (<8B#X 8G#</|>	.	.	.	.
*	*v	*v	*	*	*
=22	=22	=22	=22	=22
*ped	*	*	*	*
(<4C#\	(4c#)) 4E/	.	2r	.
*Xped	*	*	*	*
8CC#/)|>	8cc#\)|	.	.	.
8r	8r	.	.	.
==:|!	==:|!	==:|!	==:|!	==:|!;|!
*-	*-	*-	*-	*-
!!!system-decoration: {<s1>(s2,s3)}
!!!RDF**kern: > = above
!!!RDF**kern: < = below
!!!RDF**kern: | = vertical stroke
!!!ENC: Marcin Jachim
!!!END: 2021-09-06
!!!ENC: Marta Lawrence
!!!END: 2021-09-09
